X:74
T:Buttons a Farthing a Pair. ThoH.074
Q:3/8=100
M:6/8
L:1/8
B:Thompson's Compleat Collection of 120 Favourite Hornpipes.
Z:Village Music Project, Simon Wilson 2016
O:England.
K:D
"^Would probably make more sense if rebarred as 9/8"
def ecA|d3Bcd|A2G FED|def ecA|d3cBc|dB^GA3:|
|:AB=c cBA|BGG B^cd|dcB cAA|Ace gfe|fcd BGF GECD3:|

